X:91 
T:Wild Oats 
B:OFPC1.51
F:fileID ofpc1/91wild
"Irish"
D:"O'Sullivan Meets O'Farrell 1" track 8b
Q:160
M:6/8
L:1/8
R:jig
K:D
z|AFD DFD|DED G2A|BGE EFE|EGE G2B|
AFA BGB|AFA B2A|B/c/dB AFd|AFE D2:|
c/d/|efe ecA|ABA A2e|fag fdB|BcB Bcd|
ece fdf|gfe d2A|B/c/dB AFd|AFE D2:|

